X: 20462
T: The MUSES.  (A Contra Dance.)
C:
%R: jig
B: Elias Howe "The Musician's Companion" 1843 p.46 #2
S: http://imslp.org/wiki/The_Musician's_Companion_(Howe,_Elias)
Z: 2015 John Chambers <jc:trillian.mit.edu>
M: 6/8
L: 1/8
K: D
% - - - - - - - - - - - - - - - - - - - - - - - - -
A/G/ |\
FAd FAd | BAB e2d | cBA ABc | d2f a2 A/G/ |\
FAd FAd | BAB e2d | cBA ABc | d2D d2 :|
|: a |\
f2a f2a | dda cca | ffa eea | ^gfg a2A |\
{e}dcd {e}dcd | gfg f2d | efe {d}cBc | {c}d2D d2 :|
% - - - - - - - - - - - - - - - - - - - - - - - - -

%%sep 1 1 500

